apps/scalable/radiotray_connecting.svg

<svg viewBox="0 0 48 48" xmlns="http://www.w3.org/2000/svg" xmlns:xlink="http://www.w3.org/1999/xlink"><linearGradient id="a" gradientUnits="userSpaceOnUse" x1="17.38679" x2="17.38679" y1="1045.86888" y2="1006.86891"><stop offset="0" stop-color="#ff9b00"/><stop offset="1" stop-color="#ffd42a"/></linearGradient><linearGradient gradientUnits="userSpaceOnUse" x1="0" x2="47" y1="23.5" y2="23.5"><stop offset="0" stop-color="#a9a3d4"/><stop offset=".47001833" stop-color="#87baff"/><stop offset="1" stop-color="#89ec85"/></linearGradient><g stroke-width="1.317422" transform="matrix(1.199999650171 0 0 1.199999650171 3.135860870631 -1208.242316863007)"><circle cx="17.386787" cy="1026.8689" fill="url(#a)" r="20.000006"/><path d="m19 12c0 1.971-.838 3.862-2.3 5.188-.287.261-.647.39-1.008.39-.408 0-.814-.166-1.11-.492-.557-.613-.511-1.562.103-2.118.836-.76 1.315-1.841 1.315-2.968 0-1.13-.478-2.21-1.31-2.965-.614-.556-.661-1.505-.104-2.119.556-.615 1.504-.661 2.118-.104 1.459 1.322 2.296 3.213 2.296 5.188zm1.514-8.466c-.584-.587-1.535-.589-2.121-.005-.588.584-.59 1.534-.006 2.122 1.685 1.692 2.613 3.947 2.613 6.349 0 2.396-.93 4.649-2.618 6.347-.584.587-.582 1.537.006 2.121.292.291.675.437 1.058.437.385 0 .771-.147 1.063-.442 2.251-2.264 3.491-5.269 3.491-8.463 0-3.2-1.238-6.207-3.486-8.466zm-8.514 6.653c-1.003 0-1.812.809-1.812 1.813 0 1 .81 1.813 1.813 1.813s1.812-.813 1.812-1.813c0-1.004-.81-1.813-1.813-1.813zm-2.581-3.273c-.557-.614-1.505-.66-2.119-.103-1.462 1.326-2.3 3.218-2.3 5.189 0 1.977.837 3.867 2.297 5.188.287.26.647.388 1.006.388.409 0 .816-.166 1.113-.493.556-.614.508-1.563-.106-2.119-.832-.753-1.31-1.833-1.31-2.964 0-1.127.479-2.208 1.316-2.967.614-.557.66-1.506.103-2.119zm-6.419 5.086c0-2.396.93-4.649 2.618-6.346.584-.587.583-1.537-.005-2.121-.586-.585-1.536-.582-2.121.005-2.252 2.262-3.492 5.268-3.492 8.462 0 3.199 1.238 6.206 3.486 8.466.293.295.678.442 1.063.442.383 0 .765-.146 1.058-.437.587-.584.589-1.534.005-2.121-1.684-1.694-2.612-3.949-2.612-6.35z" fill="#fff" fill-opacity=".850806" transform="matrix(1.1805559 0 0 1.1805559 3.220117 1012.702)"/></g></svg>

<?xml version="1.0" encoding="UTF-8" standalone="no"?>
<svg
   xmlns:dc="http://purl.org/dc/elements/1.1/"
   xmlns:cc="http://creativecommons.org/ns#"
   xmlns:rdf="http://www.w3.org/1999/02/22-rdf-syntax-ns#"
   xmlns:svg="http://www.w3.org/2000/svg"
   xmlns="http://www.w3.org/2000/svg"
   xmlns:xlink="http://www.w3.org/1999/xlink"
   xmlns:sodipodi="http://sodipodi.sourceforge.net/DTD/sodipodi-0.dtd"
   xmlns:inkscape="http://www.inkscape.org/namespaces/inkscape"
   viewBox="0 0 48 48"
   id="svg2"
   version="1.1"
   inkscape:version="0.91 r13725"
   sodipodi:docname="radiotray_connecting.svg">
  <metadata
     id="metadata69">
    <rdf:RDF>
      <cc:Work
         rdf:about="">
        <dc:format>image/svg+xml</dc:format>
        <dc:type
           rdf:resource="http://purl.org/dc/dcmitype/StillImage" />
        <dc:title></dc:title>
      </cc:Work>
    </rdf:RDF>
  </metadata>
  <sodipodi:namedview
     pagecolor="#ffffff"
     bordercolor="#666666"
     borderopacity="1"
     objecttolerance="10"
     gridtolerance="10"
     guidetolerance="10"
     inkscape:pageopacity="0"
     inkscape:pageshadow="2"
     inkscape:window-width="1366"
     inkscape:window-height="633"
     id="namedview67"
     showgrid="false"
     inkscape:zoom="4.9166667"
     inkscape:cx="-12.20339"
     inkscape:cy="24"
     inkscape:window-x="0"
     inkscape:window-y="33"
     inkscape:window-maximized="1"
     inkscape:current-layer="g4312" />
  <defs
     id="defs4">
    <linearGradient
       id="linearGradient3764"
       x1="1"
       x2="47"
       gradientUnits="userSpaceOnUse"
       gradientTransform="matrix(0,-1,1,0,-1.5e-6,47.999998)">
      <stop
         stop-color="#2c313c"
         stop-opacity="1"
         id="stop7" />
      <stop
         offset="1"
         stop-color="#353b47"
         stop-opacity="1"
         id="stop9" />
    </linearGradient>
    <clipPath
       id="clipPath-000143995">
      <g
         transform="translate(0,-1004.3622)"
         id="g12">
        <path
           d="m -24 13 c 0 1.105 -0.672 2 -1.5 2 -0.828 0 -1.5 -0.895 -1.5 -2 0 -1.105 0.672 -2 1.5 -2 0.828 0 1.5 0.895 1.5 2 z"
           transform="matrix(15.333333,0,0,11.5,414.99999,878.8622)"
           fill="#1890d0"
           id="path14" />
      </g>
    </clipPath>
    <clipPath
       id="clipPath-007409816">
      <g
         transform="translate(0,-1004.3622)"
         id="g17">
        <path
           d="m -24 13 c 0 1.105 -0.672 2 -1.5 2 -0.828 0 -1.5 -0.895 -1.5 -2 0 -1.105 0.672 -2 1.5 -2 0.828 0 1.5 0.895 1.5 2 z"
           transform="matrix(15.333333,0,0,11.5,414.99999,878.8622)"
           fill="#1890d0"
           id="path19" />
      </g>
    </clipPath>
    <linearGradient
       id="linearGradient4320"
       inkscape:collect="always">
      <stop
         id="stop4322"
         offset="0"
         style="stop-color:#ff9b00;stop-opacity:1" />
      <stop
         id="stop4324"
         offset="1"
         style="stop-color:#ffd42a;stop-opacity:1" />
    </linearGradient>
    <linearGradient
       inkscape:collect="always"
       xlink:href="#linearGradient4320"
       id="linearGradient4489"
       x1="408.57144"
       y1="542.79797"
       x2="408.57144"
       y2="503.798"
       gradientUnits="userSpaceOnUse"
       gradientTransform="translate(-391.18465,503.07091)" />
    <linearGradient
       id="linearGradient8311-06">
      <stop
         offset="0"
         style="stop-color:#a9a3d4;stop-opacity:1"
         id="stop8313-6" />
      <stop
         id="stop4462"
         style="stop-color:#87baff;stop-opacity:1"
         offset="0.47001833" />
      <stop
         offset="1"
         style="stop-color:#89ec85;stop-opacity:1"
         id="stop8315-2" />
    </linearGradient>
    <linearGradient
       inkscape:collect="always"
       xlink:href="#linearGradient8311-06"
       id="linearGradient4460"
       x1="0"
       y1="23.5"
       x2="47"
       y2="23.5"
       gradientUnits="userSpaceOnUse" />
    <linearGradient
       id="linearGradient4316">
      <stop
         offset="0"
         style="stop-color:#e3e3e3;stop-opacity:1"
         id="stop4318" />
      <stop
         offset="1"
         style="stop-color:#fcf9f9;stop-opacity:1"
         id="stop4320" />
    </linearGradient>
    <linearGradient
       id="linearGradient8467">
      <stop
         id="stop8469"
         style="stop-color:#d3d3d3;stop-opacity:1"
         offset="0" />
      <stop
         id="stop8471"
         style="stop-color:#fcf9f9;stop-opacity:1"
         offset="1" />
    </linearGradient>
  </defs>
  <g
     id="g33" />
  <g
     transform="translate(-384.61243,-499.832)"
     id="layer1"
     inkscape:label="Layer 1">
    <g
       inkscape:label="Layer 1"
       id="layer1-4"
       transform="translate(392.24401,-502.51656)">
      <g
         style="stroke-width:1.31742239;stroke-miterlimit:4;stroke-dasharray:none"
         id="g4413"
         transform="matrix(1.138587,0,0,1.138587,-3.4562036,-142.80276)">
        <g
           transform="matrix(1.0539376,0,0,1.0539376,-0.91298719,-55.411661)"
           id="g4312">
          <circle
             style="opacity:1;fill:url(#linearGradient4489);fill-opacity:1;stroke:none;stroke-width:1.31742239;stroke-linecap:butt;stroke-linejoin:round;stroke-miterlimit:4;stroke-dasharray:none;stroke-opacity:1"
             id="path4173"
             cx="17.386787"
             cy="1026.8689"
             r="20.000006" />
          <g
             transform="matrix(1.1805559,0,0,1.1805559,3.2201167,1012.702)"
             id="g3-9"
             style="fill:#ffffff;fill-opacity:0.85080647">
            <path
               inkscape:connector-curvature="0"
               style="fill:#ffffff;fill-opacity:0.85080647"
               d="m 19,12 c 0,1.971 -0.838,3.862 -2.3,5.188 -0.287,0.261 -0.647,0.39 -1.008,0.39 -0.408,0 -0.814,-0.166 -1.11,-0.492 -0.557,-0.613 -0.511,-1.562 0.103,-2.118 C 15.521,14.208 16,13.127 16,12 16,10.87 15.522,9.79 14.69,9.035 14.076,8.479 14.029,7.53 14.586,6.916 15.142,6.301 16.09,6.255 16.704,6.812 18.163,8.134 19,10.025 19,12 Z M 20.514,3.534 C 19.93,2.947 18.979,2.945 18.393,3.529 17.805,4.113 17.803,5.063 18.387,5.651 20.072,7.343 21,9.598 21,12 c 0,2.396 -0.93,4.649 -2.618,6.347 -0.584,0.587 -0.582,1.537 0.006,2.121 0.292,0.291 0.675,0.437 1.058,0.437 0.385,0 0.771,-0.147 1.063,-0.442 C 22.76,18.199 24,15.194 24,12 24,8.8 22.762,5.793 20.514,3.534 Z M 12,10.187 c -1.003,0 -1.812,0.809 -1.812,1.813 0,1 0.81,1.813 1.813,1.813 1.003,0 1.812,-0.813 1.812,-1.813 0,-1.004 -0.81,-1.813 -1.813,-1.813 z M 9.419,6.914 C 8.862,6.3 7.914,6.254 7.3,6.811 5.838,8.137 5,10.029 5,12 c 0,1.977 0.837,3.867 2.297,5.188 0.287,0.26 0.647,0.388 1.006,0.388 0.409,0 0.816,-0.166 1.113,-0.493 C 9.972,16.469 9.924,15.52 9.31,14.964 8.478,14.211 8,13.131 8,12 8,10.873 8.479,9.792 9.316,9.033 9.93,8.476 9.976,7.527 9.419,6.914 Z M 3,12 C 3,9.604 3.93,7.351 5.618,5.654 6.202,5.067 6.201,4.117 5.613,3.533 5.027,2.948 4.077,2.951 3.492,3.538 1.24,5.8 0,8.806 0,12 c 0,3.199 1.238,6.206 3.486,8.466 0.293,0.295 0.678,0.442 1.063,0.442 0.383,0 0.765,-0.146 1.058,-0.437 C 6.194,19.887 6.196,18.937 5.612,18.35 3.928,16.656 3,14.401 3,12 Z"
               id="path5" />
          </g>
        </g>
      </g>
      <g
         id="g3"
         transform="matrix(0.48796879,0,0,0.48796879,21.356721,1026.8977)"
         style="fill:url(#linearGradient4460);fill-opacity:1" />
    </g>
  </g>
</svg>
